resources/svg/major-globe.svg

<svg xmlns="http://www.w3.org/2000/svg" viewBox="0 0 20 20" fill="currentColor"><path fill-rule="evenodd" d="M3.07 6a8.025 8.025 0 0 1 4.262-3.544 12.802 12.802 0 0 0-1.737 3.544h-2.525zm-.818 2a8.015 8.015 0 0 0-.252 2c0 .69.088 1.36.252 2h2.89a13.886 13.886 0 0 1-.142-2c0-.704.051-1.371.143-2h-2.891zm4.916 0c-.108.62-.168 1.286-.168 2 0 .713.061 1.38.168 2h5.664c.107-.62.168-1.287.168-2 0-.714-.061-1.38-.168-2h-5.664zm7.69 0a14.102 14.102 0 0 1-.001 4h2.891a8 8 0 0 0 .252-2 8 8 0 0 0-.252-2h-2.89zm2.072-2h-2.525a12.805 12.805 0 0 0-1.737-3.544 8.025 8.025 0 0 1 4.262 3.544zm-4.638 0h-4.584c.324-.865.725-1.596 1.124-2.195.422-.633.842-1.117 1.168-1.452.326.335.746.82 1.168 1.452.4.599.8 1.33 1.124 2.195zm-1.124 10.195c.4-.599.8-1.33 1.124-2.195h-4.584c.324.865.725 1.596 1.124 2.195.422.633.842 1.117 1.168 1.452.326-.335.746-.82 1.168-1.452zm-8.098-2.195h2.525a12.802 12.802 0 0 0 1.737 3.544 8.025 8.025 0 0 1-4.262-3.544zm9.762 3.305a12.9 12.9 0 0 1-.164.24 8.025 8.025 0 0 0 4.262-3.545h-2.525a12.805 12.805 0 0 1-1.573 3.305zm7.168-7.305c0 5.52-4.472 9.994-9.99 10h-.022c-5.518-.006-9.988-4.481-9.988-10 0-5.523 4.477-10 10-10s10 4.477 10 10z"/></svg>

<svg xmlns="http://www.w3.org/2000/svg" viewBox="0 0 20 20" fill="currentColor"><path fill-rule="evenodd" d="M3.07 6a8.025 8.025 0 014.262-3.544A12.802 12.802 0 005.595 6H3.07zm-.818 2A8.015 8.015 0 002 10c0 .69.088 1.36.252 2h2.89A13.886 13.886 0 015 10c0-.704.051-1.371.143-2H2.252zm4.916 0C7.06 8.62 7 9.286 7 10c0 .713.061 1.38.168 2h5.664c.107-.62.168-1.287.168-2 0-.714-.061-1.38-.168-2H7.168zm7.69 0c.09.629.142 1.296.142 2s-.051 1.371-.143 2h2.891c.165-.64.252-1.31.252-2s-.087-1.36-.252-2h-2.89zm2.072-2h-2.525a12.805 12.805 0 00-1.737-3.544A8.025 8.025 0 0116.93 6zm-4.638 0H7.708c.324-.865.725-1.596 1.124-2.195.422-.633.842-1.117 1.168-1.452.326.335.746.82 1.168 1.452.4.599.8 1.33 1.124 2.195zm-1.124 10.195c.4-.599.8-1.33 1.124-2.195H7.708c.324.865.725 1.596 1.124 2.195.422.633.842 1.117 1.168 1.452.326-.335.746-.82 1.168-1.452zM3.07 14h2.525a12.802 12.802 0 001.737 3.544A8.025 8.025 0 013.07 14zm9.762 3.305a12.9 12.9 0 01-.164.24A8.025 8.025 0 0016.93 14h-2.525a12.805 12.805 0 01-1.573 3.305zM20 10c0 5.52-4.472 9.994-9.99 10h-.022C4.47 19.994 0 15.519 0 10 0 4.477 4.477 0 10 0s10 4.477 10 10z" fill="#5C5F62"/></svg>
